dist/images/svg/sprite/money-bag-broken-white.svg

<svg width="22" height="22" fill="none" xmlns="http://www.w3.org/2000/svg"><path d="M2.172 19.828C3.343 21 5.229 21 9 21h4c3.771 0 5.657 0 6.828-1.172C21 18.657 21 16.771 21 13c0-1.17 0-2.158-.035-3m-1.137-3.828C18.657 5 16.771 5 13 5H9C5.229 5 3.343 5 2.172 6.172 1 7.343 1 9.229 1 13c0 1.17 0 2.158.035 3M11 1c1.886 0 2.828 0 3.414.586C15 2.172 15 3.114 15 5M7.586 1.586C7 2.172 7 3.114 7 5" stroke="#fff" stroke-width="1.5" stroke-linecap="round"/><path d="M11 16.333c1.105 0 2-.746 2-1.666 0-.92-.895-1.667-2-1.667s-2-.746-2-1.667c0-.92.895-1.666 2-1.666m0 6.666c-1.105 0-2-.746-2-1.666m2 1.666V17m0-7.333V9m0 .667c1.105 0 2 .746 2 1.666" stroke="#fff" stroke-width="1.5" stroke-linecap="round"/></svg>

<svg width="22" height="22" viewBox="0 0 22 22" fill="none" xmlns="http://www.w3.org/2000/svg">
<path d="M2.172 19.828C3.343 21 5.229 21 9 21H13C16.771 21 18.657 21 19.828 19.828C21 18.657 21 16.771 21 13C21 11.83 21 10.842 20.965 10M19.828 6.172C18.657 5 16.771 5 13 5H9C5.229 5 3.343 5 2.172 6.172C1 7.343 1 9.229 1 13C1 14.17 1 15.158 1.035 16M11 1C12.886 1 13.828 1 14.414 1.586C15 2.172 15 3.114 15 5M7.586 1.586C7 2.172 7 3.114 7 5" stroke="white" stroke-width="1.5" stroke-linecap="round"/>
<path d="M11 16.333C12.105 16.333 13 15.587 13 14.667C13 13.747 12.105 13 11 13C9.895 13 9 12.254 9 11.333C9 10.413 9.895 9.667 11 9.667M11 16.333C9.895 16.333 9 15.587 9 14.667M11 16.333V17M11 9.667V9M11 9.667C12.105 9.667 13 10.413 13 11.333" stroke="white" stroke-width="1.5" stroke-linecap="round"/>
</svg>
